X:1
T:Title
%%score { ( 1 3 ) | ( 2 4 ) }
L:1/8
M:4/4
K:G
V:1 treble nm="Grand Piano"
V:3 treble 
V:2 bass 
V:4 bass 
V:1
 z4 z2[Q:1/4=96] DD | GGGG [EA][EG][DF][CE] | [B,D][B,G][B,G][CA] [DB]2 [DB][CDA] | %3
 [B,DG]2 [B,DG]2 [DGB]2 [DGd]2 | [DFA]6 [Fd][Ac] | BBBc dB[G,DG][G,D] | %6
 [G,CE][CEA][CEA][D^GB] [EAc]2 [EGc][CGe] | [Gd]2 [GB]2 [FB]2 [FA]2 |[M:3/4] G6 |[M:1/4] Bc | %10
[M:4/4] z B3 z [GB]3 | edcB [Fc]2 [FA][GB] | z [FA]3 z [FA]3 | [Fd][Ac][GB][FA] B2 DD | %14
 GGAA B2 [GB][GB] |[M:9/8] [Gc][Gc][Gd] [Gd] [Ge]2- [Ge][Ge][Ge] |[M:4/4] z [GB]3 z [GB]3 | %17
[M:7/8] [Fd][Ac][GB] [CFA] [B,G]3 |] %18
V:2
 z4 z2 [G,B,][G,B,] | [G,B,D][G,B,D][G,B,D][G,B,D] [C,C][C,C][C,G,][C,G,] | %2
 [G,,G,][G,,G,][G,,G,][G,,G,] [G,,G,]2 G,,G,, | G,,2 G,,2 G,,2 B,,2 | D,6 [D,A,][D,D] | %5
 [G,DG][G,DG][G,DG][G,CG] [G,B,G][K:bass][G,D]B,,B,, | C,C,C,B,, A,,2 A,,A,, | %7
 [D,B,]2 [D,D]2 [D,D]2 [D,C]2 |[M:3/4] [G,B,]6 |[M:1/4][K:treble] [G,G][G,A,G] | %10
[M:4/4] z G3[K:bass] z4 | [G,CG][G,B,G][G,EG][G,DG][K:bass] [D,D]2 [D,D][D,D] | %12
 [D,D][D,C]D,D, D,D,D,D, | [D,A,][D,D][D,D][D,D][K:treble] [G,DG]2 [G,B,][G,B,] | %14
 [G,B,D][G,B,D][G,CD][G,CD] [G,DG]2[K:bass] [=F,C][F,D] | %15
[M:9/8] [E,C][E,C][D,B,] [D,B,] [C,C]2- [C,C][C,C][C,C] |[M:4/4] [D,B,][D,D]D,D, D,D,D,D, | %17
[M:7/8] [D,A,][D,D][D,D] D, G,,3 |] %18
V:3
 x8 | x8 | x8 | x8 | x8 | x8 | x8 | x8 |[M:3/4] x6 |[M:1/4] x2 |[M:4/4] .d2 DD [DBd]DDD | x8 | %12
 .[Ac]2 DD [DAc]DDD | x8 | x8 |[M:9/8] x9 |[M:4/4] .[Gd]2 DD [DBd]DDD |[M:7/8] x7 |] %18
V:4
 x8 | x8 | x8 | x8 | x8 | x5[K:bass] x3 | x8 | x8 |[M:3/4] x6 |[M:1/4][K:treble] x2 | %10
[M:4/4] [G,B,G][G,D]G,[K:bass]G, G,G,G,G, | x4[K:bass] x4 | x8 | x4[K:treble] x4 | x6[K:bass] x2 | %15
[M:9/8] x9 |[M:4/4] x8 |[M:7/8] x7 |] %18

